assets/img/icons/social/twitter.svg

<svg width="24" height="24" viewBox="0 0 24 24" fill="none" xmlns="http://www.w3.org/2000/svg"><g clip-path="url(#clip0)"><path d="M24 4.557a9.83 9.83 0 01-2.828.775 4.932 4.932 0 002.165-2.724 9.864 9.864 0 01-3.127 1.195 4.916 4.916 0 00-3.594-1.555c-3.179 0-5.515 2.966-4.797 6.045A13.978 13.978 0 011.671 3.149a4.93 4.93 0 001.523 6.574 4.903 4.903 0 01-2.229-.616c-.054 2.281 1.581 4.415 3.949 4.89a4.935 4.935 0 01-2.224.084 4.928 4.928 0 004.6 3.419A9.9 9.9 0 010 19.54a13.94 13.94 0 007.548 2.212c9.142 0 14.307-7.721 13.995-14.646A10.025 10.025 0 0024 4.557z" fill="#869AB8"/></g><defs><clipPath id="clip0"><path fill="#fff" d="M0 0h24v24H0z"/></clipPath></defs></svg>

<?xml version="1.0" encoding="UTF-8" standalone="no"?>
<!DOCTYPE svg PUBLIC "-//W3C//DTD SVG 1.1//EN" "http://www.w3.org/Graphics/SVG/1.1/DTD/svg11.dtd">
<svg width="100%" height="100%" viewBox="0 0 24 24" version="1.1" xmlns="http://www.w3.org/2000/svg" xmlns:xlink="http://www.w3.org/1999/xlink" xml:space="preserve" xmlns:serif="http://www.serif.com/" style="fill-rule:evenodd;clip-rule:evenodd;stroke-linejoin:round;stroke-miterlimit:2;">
    <g>
        <path d="M24,4.557C23.101,4.955 22.148,5.217 21.172,5.332C22.2,4.717 22.97,3.749 23.337,2.608C22.37,3.182 21.313,3.586 20.21,3.803C19.279,2.81 17.977,2.246 16.616,2.248C13.437,2.248 11.101,5.214 11.819,8.293C7.862,8.095 4.17,6.223 1.671,3.149C0.372,5.386 1.043,8.285 3.194,9.723C2.413,9.698 1.648,9.487 0.965,9.107C0.911,11.388 2.546,13.522 4.914,13.997C4.189,14.194 3.428,14.223 2.69,14.081C3.333,16.082 5.189,17.461 7.29,17.5C5.227,19.118 2.603,19.852 0,19.54C2.251,20.986 4.872,21.754 7.548,21.752C16.69,21.752 21.855,14.031 21.543,7.106C22.507,6.409 23.339,5.546 24,4.557Z" style="fill:rgb(253,201,71);fill-rule:nonzero;"/>
    </g>
</svg>
